X:412
L:1/8
M:9/8
K:A
 Ac/d/e/c/ ec/d/e/c/ aec | ec/d/e/c/ aec dcB | Ac/d/e/c/ ec/d/e/c/ aec | dcB c/d/ec dcB :: 
 cde aec aec | efg aec dcB | efg aec aec | dcB c/d/ec dcB :: eA{B}A edc aec | eA{B}A edc dcB | 
 eA{B}A edc aec | dcB c/d/ec dcB :|

